packages/foundations/assets/icons/functional/images/environment/globe.svg

<svg xmlns="http://www.w3.org/2000/svg" width="32" height="32" fill="none"><path fill="#1A1C1F" fill-rule="evenodd" d="M14.72 2.06c-1.337.16-2.192.345-3.214.694a14.01 14.01 0 0 0-9.108 9.958 13.97 13.97 0 0 0 2.111 11.263c1.513 2.162 3.665 3.918 6.004 4.898 1.813.759 3.549 1.111 5.487 1.111 2.014 0 3.907-.403 5.746-1.224 3.133-1.398 5.81-4.13 7.127-7.273.76-1.814 1.111-3.55 1.11-5.487-.001-2.779-.782-5.401-2.282-7.665a14.06 14.06 0 0 0-9.621-6.178c-.537-.084-2.898-.153-3.36-.097m1.285 2.407c2.474 2.916 4.335 6.721 4.793 9.8.03.205.068.451.084.546l.03.174H10.814l.037-.467c.051-.627.258-1.844.43-2.525.158-.624.528-1.749.764-2.322.211-.51.239-.664.169-.923-.177-.659-.974-.949-1.554-.566-.251.167-.376.412-.76 1.496-.605 1.708-.86 2.891-1.076 5l-.032.307H4.051l.025-.12c.014-.066.04-.264.059-.44.155-1.47.827-3.354 1.696-4.755C7.612 6.799 10.608 4.78 13.92 4.22c.769-.13.914-.146 1.387-.158l.347-.009zm3.391.045a12.03 12.03 0 0 1 7.77 7.155c.346.878.626 2.041.745 3.093l.026.227h-4.994l-.035-.28c-.387-3.097-1.572-6.112-3.579-9.107a34 34 0 0 0-.75-1.084l-.195-.257.208.037c.114.021.476.118.804.216M8.945 17.573c.344 2.787 1.605 5.959 3.499 8.8.235.352.533.78.664.95.13.171.226.321.213.334-.039.039-1.131-.285-1.654-.491-3.78-1.487-6.596-4.825-7.395-8.766a12 12 0 0 1-.137-.827 7 7 0 0 0-.059-.44l-.025-.121 2.414.014 2.414.014zm12.015-.432c0 .07-.025.376-.055.68-.149 1.483-.467 2.736-1.096 4.32-.312.786-.332.905-.206 1.207.234.561.856.801 1.397.539.297-.144.43-.349.724-1.114.644-1.673 1.077-3.44 1.181-4.826.018-.235.046-.541.062-.68l.03-.254h4.943l-.026.2c-.217 1.668-.573 2.883-1.219 4.17a12.13 12.13 0 0 1-5.788 5.549 13.2 13.2 0 0 1-3.745 1.012c-.965.105-.93.114-1.31-.338-2.56-3.043-4.348-6.664-4.864-9.846a24 24 0 0 1-.108-.707c0-.022 2.268-.04 5.04-.04h5.04z"/></svg>

<svg width="32" height="32" viewBox="0 0 32 32" fill="none" xmlns="http://www.w3.org/2000/svg"><path d="M14.720 2.060 C 13.383 2.220,12.528 2.405,11.506 2.754 C 6.954 4.310,3.537 8.045,2.398 12.712 C 1.455 16.573,2.232 20.722,4.509 23.975 C 6.022 26.137,8.174 27.893,10.513 28.873 C 12.326 29.632,14.062 29.984,16.000 29.984 C 18.014 29.984,19.907 29.581,21.746 28.760 C 24.879 27.362,27.556 24.630,28.873 21.487 C 29.633 19.673,29.984 17.937,29.983 16.000 C 29.982 13.221,29.201 10.599,27.701 8.335 C 25.479 4.983,22.049 2.781,18.080 2.157 C 17.543 2.073,15.182 2.004,14.720 2.060 M16.005 4.467 C 18.479 7.383,20.340 11.188,20.798 14.267 C 20.828 14.472,20.866 14.718,20.882 14.813 L 20.912 14.987 15.863 14.987 L 10.814 14.987 10.851 14.520 C 10.902 13.893,11.109 12.676,11.281 11.995 C 11.439 11.371,11.809 10.246,12.045 9.673 C 12.256 9.163,12.284 9.009,12.214 8.750 C 12.037 8.091,11.240 7.801,10.660 8.184 C 10.409 8.351,10.284 8.596,9.900 9.680 C 9.295 11.388,9.040 12.571,8.824 14.680 L 8.792 14.987 6.422 14.987 L 4.051 14.987 4.076 14.867 C 4.090 14.801,4.116 14.603,4.135 14.427 C 4.290 12.957,4.962 11.073,5.831 9.672 C 7.612 6.799,10.608 4.780,13.920 4.220 C 14.689 4.090,14.834 4.074,15.307 4.062 L 15.654 4.053 16.005 4.467 M19.396 4.512 C 22.963 5.583,25.801 8.196,27.166 11.667 C 27.512 12.545,27.792 13.708,27.911 14.760 L 27.937 14.987 25.440 14.987 L 22.943 14.987 22.908 14.707 C 22.521 11.610,21.336 8.595,19.329 5.600 C 19.024 5.145,18.687 4.658,18.579 4.516 L 18.384 4.259 18.592 4.296 C 18.706 4.317,19.068 4.414,19.396 4.512 M8.945 17.573 C 9.289 20.360,10.550 23.532,12.444 26.373 C 12.679 26.725,12.977 27.153,13.108 27.323 C 13.238 27.494,13.334 27.644,13.321 27.657 C 13.282 27.696,12.190 27.372,11.667 27.166 C 7.887 25.679,5.071 22.341,4.272 18.400 C 4.216 18.121,4.154 17.749,4.135 17.573 C 4.116 17.397,4.090 17.199,4.076 17.133 L 4.051 17.012 6.465 17.026 L 8.879 17.040 8.945 17.573 M20.960 17.141 C 20.960 17.211,20.935 17.517,20.905 17.821 C 20.756 19.304,20.438 20.557,19.809 22.141 C 19.497 22.927,19.477 23.046,19.603 23.348 C 19.837 23.909,20.459 24.149,21.000 23.887 C 21.297 23.743,21.430 23.538,21.724 22.773 C 22.368 21.100,22.801 19.333,22.905 17.947 C 22.923 17.712,22.951 17.406,22.967 17.267 L 22.997 17.013 25.468 17.013 L 27.940 17.013 27.914 17.213 C 27.697 18.881,27.341 20.096,26.695 21.383 C 25.475 23.812,23.380 25.821,20.907 26.932 C 19.794 27.431,18.393 27.810,17.162 27.944 C 16.197 28.049,16.232 28.058,15.852 27.606 C 13.292 24.563,11.504 20.942,10.988 17.760 C 10.929 17.393,10.880 17.075,10.880 17.053 C 10.880 17.031,13.148 17.013,15.920 17.013 L 20.960 17.013 20.960 17.141 " fill="#1A1C1F" stroke="none" fill-rule="evenodd"></path></svg>
